icons/config-light.svg

<svg width="16" height="16" viewBox="0 0 16 16" fill="none" xmlns="http://www.w3.org/2000/svg">
<path d="M13.5 9.947H13V10.947H13.5V9.947Z" fill="#4A4190"/>
<path d="M13 9.947V10.947H12.55C12.485 11.2866 12.3524 11.6097 12.16 11.897L12.83 12.567L12.12 13.277L11.79 12.947H12V7.737L12.12 7.617L12.83 8.327L12.16 8.997C12.3524 9.28434 12.485 9.6074 12.55 9.947H13Z" fill="#4A4190"/>
<path d="M12.9999 4.947V7.43699L12.6499 7.08699L12.1199 6.557L11.9999 6.677V5.947H8.99994V2.947H3.99994V12.947H6.48994L6.63994 13.097L7.34994 13.807L7.48994 13.947H3.95994C3.83015 13.9481 3.7015 13.9227 3.58188 13.8723C3.46226 13.8219 3.35418 13.7476 3.2643 13.654C3.17441 13.5604 3.1046 13.4494 3.05914 13.3278C3.01368 13.2062 2.99353 13.0766 2.99994 12.947V2.947C2.99353 2.81736 3.01368 2.68777 3.05914 2.5662C3.1046 2.44462 3.17441 2.33361 3.2643 2.23998C3.35418 2.14635 3.46226 2.07206 3.58188 2.02168C3.7015 1.9713 3.83015 1.94588 3.95994 1.947H9.63994L12.9999 4.947Z" fill="#4F575E"/>
<path d="M12 7.737V12.947H11.79L11.45 12.607C11.225 12.7561 10.9789 12.8707 10.72 12.947H9.28C9.02107 12.8707 8.77502 12.7561 8.55 12.607L8.21 12.947H7.55L7.17 12.567L7.84 11.897C7.64765 11.6097 7.51502 11.2866 7.45 10.947H6.5V9.947H7.45C7.51502 9.6074 7.64765 9.28434 7.84 8.997L7.17 8.327L7.88 7.617L8.55 8.28699C8.83734 8.09465 9.1604 7.96202 9.5 7.897V6.947H10.5V7.897C10.8396 7.96202 11.1627 8.09465 11.45 8.28699L12 7.737ZM11.9 10.447C11.9 10.0712 11.7886 9.70387 11.5798 9.39142C11.371 9.07897 11.0743 8.83543 10.7271 8.69163C10.3799 8.54782 9.99789 8.51019 9.62933 8.5835C9.26076 8.65682 8.92221 8.83777 8.65649 9.10349C8.39077 9.36921 8.20982 9.70776 8.13651 10.0763C8.06319 10.4449 8.10082 10.8269 8.24463 11.1741C8.38844 11.5213 8.63197 11.818 8.94442 12.0268C9.25687 12.2356 9.62422 12.347 10 12.347C10.2495 12.347 10.4966 12.2979 10.7271 12.2024C10.9576 12.1069 11.1671 11.9669 11.3435 11.7905C11.5199 11.6141 11.6599 11.4046 11.7554 11.1741C11.8509 10.9436 11.9 10.6965 11.9 10.447Z" fill="#4A4190"/>
<path d="M10.72 12.947C10.6479 12.9684 10.5744 12.9851 10.5 12.997V13.947H9.50003V12.997C9.42569 12.9851 9.35221 12.9684 9.28003 12.947H10.72Z" fill="#4A4190"/>
<path d="M9.99985 11.597C10.635 11.597 11.1499 11.0821 11.1499 10.447C11.1499 9.81187 10.635 9.297 9.99985 9.297C9.36473 9.297 8.84985 9.81187 8.84985 10.447C8.84985 11.0821 9.36473 11.597 9.99985 11.597Z" fill="#4A4190"/>
<path d="M8.21004 12.947L7.88004 13.277L7.55005 12.947H8.21004Z" fill="#4A4190"/>
</svg>

<svg xmlns="http://www.w3.org/2000/svg" viewBox="0 0 16 15.95"><defs><style>.a{fill:#4a4190;}.b{fill:#4f575e;}</style></defs><title>config-light</title><rect class="a" x="13" y="9.95" width="0.5" height="1"/><path class="a" d="M13,10v1h-.45a2.58,2.58,0,0,1-.39,1l.67.67-.71.71L11.79,13H12V7.74l.12-.12.71.71L12.16,9a2.58,2.58,0,0,1,.39.95Z"/><path class="b" d="M13,5V7.44l-.35-.35-.53-.53L12,6.68V6H9V3H4V13H6.49l.15.15.71.71.14.14H4a1,1,0,0,1-1-1V3A1,1,0,0,1,4,2H9.64Z"/><path class="a" d="M12,7.74V13h-.21l-.34-.34a2.71,2.71,0,0,1-.73.34H9.28a2.71,2.71,0,0,1-.73-.34L8.21,13H7.55l-.38-.38.67-.67a2.58,2.58,0,0,1-.39-1h-1V10h1A2.58,2.58,0,0,1,7.84,9l-.67-.67.71-.71.67.67A2.58,2.58,0,0,1,9.5,7.9V7h1v1a2.58,2.58,0,0,1,.95.39Zm-.1,2.71a1.9,1.9,0,1,0-1.9,1.9A1.9,1.9,0,0,0,11.9,10.45Z"/><path class="a" d="M10.72,13,10.5,13V14h-1V13L9.28,13Z"/><circle class="a" cx="10" cy="10.45" r="1.15"/><polygon class="a" points="8.21 12.95 7.88 13.28 7.55 12.95 8.21 12.95"/></svg>
